**kern	**kern
*clefF4	*clefF4
*k[]	*k[]
*M4/4	*M4/4
*MM112	*MM112
=1	=1
1r	2c
.	2c
=2	=2
1r	2c
.	2c
=3	=3
1r	2B
.	2B
=4	=4
1r	2c
.	2c
=5	=5
1r	2c
.	2c
=6	=6
1r	2c
.	2c
=7	=7
1r	2B
.	2B
=8	=8
1r	2B
.	2B
=9	=9
1r	2A
.	2A
=10	=10
1r	2D
.	2D
=11	=11
1r	2G
.	2G
=12	=12
1r	2G
.	2G
=13	=13
1r	2F
.	2F
=14	=14
1r	2F
.	2F
=15	=15
1r	2E
.	2E
=16	=16
1r	2E
.	2E
=17	=17
1r	2D
.	2D
=18	=18
1r	2GG
.	2GG
=19	=19
1r	2C
.	2C
=20	=20
1r	2C
.	2C
=21	=21
1r	2FF
.	2FF
=22	=22
1r	2FF#
.	2FF#
=23	=23
1r	2GG#
.	2GG#
=24	=24
1r	2GG
.	2GG
=25	=25
1r	2GG
.	2GG
=26	=26
1r	2GG
.	2GG
=27	=27
1r	2GG
.	2GG
=28	=28
1r	2GG
.	2GG
=29	=29
1r	2GG
.	2GG
=30	=30
1r	2GG
.	2GG
=31	=31
1r	2GG
.	2GG
=32	=32
1r	2CC
.	2CC
=33	=33
1r	1CC
=34	=34
1r	1CC
=35	=35
1r	1CC
==	==
*-	*-
